svgs/light/person-snowboarding.svg

<svg xmlns="http://www.w3.org/2000/svg" viewBox="0 0 512 512"><!--! Font Awesome Pro 6.0.0-alpha3 by @fontawesome - https://fontawesome.com License - https://fontawesome.com/license (Commercial License) --><path d="M507.3 228.7L485.4 206.8c-39.5-39.5-83.81-74.1-131.7-102.8c-7.859-4.735-16.44-8.063-25.48-9.86l-35.14-7.031c-15.95-3.188-29.09-14.13-35.14-29.24l-19.13-47.81c-3.281-8.219-12.64-12.22-20.8-8.922C209.9 4.437 205.9 13.75 209.1 21.95l19.13 47.81c10.08 25.2 31.98 43.42 58.59 48.74l11.64 2.328L241.5 159.9c-20.98 14.98-33.5 39.33-33.5 65.1v51.53L122.9 304.9c-8.375 2.781-12.91 11.84-10.11 20.24c2.234 6.703 8.469 10.94 15.17 10.94c1.672 0 3.375-.2657 5.063-.8282l96-32c6.531-2.172 10.94-8.282 10.94-15.17V224.1c0-15.47 7.516-30.06 19.84-38.88l77.19-52.86c.4766-.3262 .7266-.8242 1.156-1.189c16.04 9.662 31.5 20.23 46.64 31.23L279.8 226.3c-4.563 2.734-7.469 7.578-7.75 12.89c-.2656 5.328 2.125 10.44 6.391 13.63l55.19 41.39l-28.98 101.4c-2.422 8.485 2.5 17.34 11 19.78c1.469 .4062 2.938 .6094 4.406 .6094c6.953 0 13.36-4.578 15.38-11.61l32-112c1.812-6.375-.4844-13.22-5.797-17.19l-44.95-33.72l95.52-57.32c17.6 14.27 34.63 29.25 50.65 45.28l21.88 21.88c3.125 3.125 7.219 4.688 11.31 4.688c4.094 0 8.188-1.563 11.31-4.688C513.6 245.1 513.6 234.1 507.3 228.7zM422.8 113.2c30.88 0 56-25.13 56-56s-25.13-56-56-56c-30.88 0-56 25.13-56 56S391.9 113.2 422.8 113.2zM422.8 33.22c13.23 0 24 10.77 24 24s-10.77 24-24 24c-13.23 0-24-10.77-24-24S409.6 33.22 422.8 33.22zM474.7 473.2c-27.38 9.578-57.28 8.985-84.27-1.625L96.1 356.4c-25.05-9.844-46.16-27.41-61.08-50.85L29.48 295.4C24.71 287.9 14.82 285.7 7.387 290.5C-.051 295.3-2.239 305.2 2.512 312.6l6.422 10.08c18.56 29.17 44.97 51.1 76.38 63.42l293.5 115.3C396.7 508.5 415.8 512 434.8 512c17.05 0 34.13-2.844 50.45-8.547c8.344-2.922 12.75-12.05 9.844-20.39C492.2 474.7 483.1 470.3 474.7 473.2z"/></svg>

<svg xmlns="http://www.w3.org/2000/svg" viewBox="0 0 512 512"><!-- Font Awesome Pro 6.0.0-alpha2 by @fontawesome - https://fontawesome.com License - https://fontawesome.com/license (Commercial License) --><path d="M507.312 228.71L485.437 206.834C445.937 167.333 401.624 132.738 353.749 104.018C345.889 99.284 337.311 95.955 328.264 94.159L293.123 87.127C277.17 83.939 264.029 73.002 257.982 57.892L238.857 10.078C235.576 1.859 226.216 -2.141 218.06 1.156C209.857 4.437 205.857 13.75 209.138 21.953L228.263 69.767C238.342 94.971 260.248 113.19 286.858 118.503L298.498 120.831L241.498 159.864C220.513 174.849 207.998 199.193 207.998 224.96V276.492L122.934 304.853C114.559 307.634 110.028 316.697 112.825 325.088C115.059 331.791 121.294 336.026 127.997 336.026C129.669 336.026 131.372 335.76 133.059 335.197L229.06 303.196C235.592 301.025 239.998 294.915 239.998 288.024V224.96C239.998 209.49 247.513 194.896 259.842 186.083L337.03 133.222C337.506 132.896 337.756 132.398 338.186 132.033C354.227 141.695 369.686 152.26 384.831 163.262L279.764 226.303C275.201 229.038 272.295 233.882 272.014 239.194C271.748 244.523 274.139 249.632 278.404 252.82L333.592 294.212L304.608 395.637C302.186 404.122 307.108 412.981 315.608 415.419C317.077 415.825 318.545 416.028 320.014 416.028C326.967 416.028 333.374 411.45 335.389 404.418L367.389 292.415C369.202 286.04 366.905 279.196 361.593 275.227L316.639 241.507L412.161 184.183C429.763 198.449 446.787 213.434 462.812 229.46L484.687 251.335C487.812 254.461 491.906 256.023 496 256.023C500.094 256.023 504.187 254.461 507.312 251.335C513.562 245.085 513.562 234.96 507.312 228.71ZM422.796 113.222C453.671 113.222 478.797 88.096 478.797 57.22S453.671 1.218 422.796 1.218C391.921 1.218 366.796 26.344 366.796 57.22S391.921 113.222 422.796 113.222ZM422.796 33.219C436.031 33.219 446.796 43.985 446.796 57.22S436.031 81.221 422.796 81.221C409.562 81.221 398.796 70.455 398.796 57.22S409.562 33.219 422.796 33.219ZM474.734 473.233C447.359 482.812 417.452 482.218 390.468 471.608L96.997 356.354C71.95 346.51 50.84 328.947 35.918 305.509L29.48 295.415C24.715 287.946 14.824 285.743 7.387 290.54C-0.051 295.29 -2.239 305.181 2.512 312.634L8.933 322.713C27.496 351.885 53.903 373.808 85.309 386.137L378.765 501.39C396.749 508.453 415.765 512 434.812 512C451.859 512 468.937 509.156 485.265 503.453C493.609 500.531 498.016 491.406 495.109 483.062C492.187 474.733 483.062 470.342 474.734 473.233Z"/></svg>
